docs/img/icons/vscode-icons_file-type-scss.svg

<svg width="16" height="16" viewBox="0 0 16 16" fill="none" xmlns="http://www.w3.org/2000/svg">
<path d="M8.0855 9.35002C7.845 9.46052 7.5815 9.60452 7.054 9.89402C6.854 10.0065 6.645 10.119 6.4505 10.225C6.437 10.2115 6.423 10.1945 6.4095 10.1805C5.366 9.06552 3.436 8.27802 3.518 6.78052C3.5485 6.23502 3.736 4.80302 7.2245 3.06402C10.0955 1.64902 12.38 2.04102 12.7745 2.91052C13.3415 4.15002 11.55 6.45652 8.585 6.79102C8.25685 6.85758 7.91793 6.84955 7.5933 6.7675C7.26867 6.68546 6.96663 6.5315 6.7095 6.31702C6.5525 6.14652 6.529 6.13652 6.471 6.17052C6.3755 6.22052 6.437 6.37502 6.471 6.46352C6.5841 6.6683 6.73711 6.84832 6.92098 6.99294C7.10485 7.13756 7.31585 7.24385 7.5415 7.30552C8.70831 7.55772 9.92485 7.43722 11.0195 6.96102C12.8165 6.26552 14.2195 4.33202 13.8085 2.71102C13.396 1.06752 10.668 0.525524 8.087 1.44252C6.47064 1.98722 4.97727 2.84468 3.692 3.96602C2.27 5.29602 2.045 6.45202 2.137 6.93602C2.468 8.65452 4.837 9.77302 5.787 10.6015C5.737 10.629 5.695 10.6515 5.6575 10.673C5.1835 10.9085 3.3765 11.853 2.926 12.852C2.4145 13.984 3.008 14.7955 3.4 14.9045C3.99075 15.046 4.61093 14.9995 5.17396 14.7715C5.73699 14.5434 6.21474 14.1452 6.5405 13.6325C6.81714 13.2074 6.98701 12.7217 7.03567 12.2168C7.08434 11.7119 7.01035 11.2027 6.82 10.7325C6.93231 10.6429 7.05208 10.5632 7.178 10.494C7.42 10.351 7.6505 10.21 7.855 10.101C8.55519 9.77305 9.31931 9.60418 10.0925 9.60652C11.7155 9.79752 12.036 10.81 11.9745 11.2365C11.9457 11.3878 11.8849 11.5312 11.7961 11.6571C11.7072 11.7829 11.5925 11.8883 11.4595 11.966C11.347 12.0375 11.3095 12.0615 11.3195 12.1125C11.333 12.1875 11.3875 12.184 11.483 12.1705C11.7268 12.0935 11.9417 11.9444 12.0993 11.743C12.2569 11.5416 12.3498 11.2972 12.366 11.042C12.416 10.042 11.4625 8.94502 9.7745 8.95502C9.26906 8.95589 8.76867 9.0556 8.3015 9.24852C8.2265 9.27952 8.15367 9.31286 8.083 9.34852L8.0855 9.35002ZM5.673 13.2695C5.134 13.856 4.384 14.0775 4.06 13.89C3.71 13.69 3.8485 12.8225 4.51 12.202C4.90178 11.849 5.32524 11.5329 5.775 11.2575C5.8535 11.2075 5.9695 11.1415 6.109 11.0575L6.1465 11.037L6.2285 10.987C6.34648 11.3826 6.35722 11.8024 6.25961 12.2034C6.162 12.6045 5.95955 12.9724 5.673 13.2695V13.2695Z" fill="#CD6799"/>
</svg>

<svg width="16" height="16" fill="none" xmlns="http://www.w3.org/2000/svg"><path d="M8.085 9.35c-.24.11-.504.255-1.031.544-.2.113-.409.225-.604.331l-.04-.044c-1.044-1.115-2.974-1.903-2.892-3.4.03-.546.218-1.978 3.707-3.717 2.87-1.415 5.155-1.023 5.55-.153.566 1.239-1.225 3.546-4.19 3.88a2.234 2.234 0 01-1.876-.474c-.156-.17-.18-.18-.238-.146-.096.05-.034.204 0 .293a1.75 1.75 0 001.07.842 5.7 5.7 0 003.479-.345c1.796-.695 3.2-2.629 2.789-4.25-.413-1.643-3.141-2.185-5.722-1.268a13 13 0 00-4.395 2.523c-1.422 1.33-1.647 2.486-1.555 2.97.331 1.719 2.7 2.837 3.65 3.665l-.13.072c-.473.236-2.28 1.18-2.731 2.179-.512 1.132.082 1.944.474 2.053a2.916 2.916 0 003.14-1.272 3.15 3.15 0 00.28-2.9c.112-.09.232-.17.358-.239.242-.143.473-.284.677-.393a5.238 5.238 0 012.237-.494c1.623.19 1.944 1.203 1.883 1.63a1.08 1.08 0 01-.515.729c-.113.072-.15.096-.14.147.013.075.067.071.163.058a1.267 1.267 0 00.883-1.129c.05-1-.903-2.097-2.591-2.087a3.877 3.877 0 00-1.692.394l.002.001zm-2.412 3.92c-.539.586-1.289.808-1.613.62-.35-.2-.211-1.068.45-1.688.392-.353.815-.67 1.265-.944.079-.05.194-.116.334-.2l.037-.021.083-.05a2.329 2.329 0 01-.556 2.283z" fill="#CD6799"/></svg>
